icons/type-icons/icons/application-x-msdownload.svg

<?xml version="1.0" encoding="UTF-8" standalone="no"?>
<!-- Created with Inkscape (http://www.inkscape.org/) -->

<svg
   width="22"
   version="1.1"
   height="22"
   id="svg2"
   sodipodi:docname="application-x-msdownload.svg"
   inkscape:version="1.2.1 (9c6d41e410, 2022-07-14)"
   xmlns:inkscape="http://www.inkscape.org/namespaces/inkscape"
   xmlns:sodipodi="http://sodipodi.sourceforge.net/DTD/sodipodi-0.dtd"
   xmlns="http://www.w3.org/2000/svg"
   xmlns:svg="http://www.w3.org/2000/svg"
   xmlns:rdf="http://www.w3.org/1999/02/22-rdf-syntax-ns#"
   xmlns:cc="http://creativecommons.org/ns#"
   xmlns:dc="http://purl.org/dc/elements/1.1/">
  <sodipodi:namedview
     id="namedview2819"
     pagecolor="#ffffff"
     bordercolor="#000000"
     borderopacity="0.25"
     inkscape:showpageshadow="2"
     inkscape:pageopacity="0.0"
     inkscape:pagecheckerboard="0"
     inkscape:deskcolor="#d1d1d1"
     showgrid="true"
     inkscape:zoom="46.681818"
     inkscape:cx="10.989289"
     inkscape:cy="11.010711"
     inkscape:window-width="2560"
     inkscape:window-height="1367"
     inkscape:window-x="0"
     inkscape:window-y="0"
     inkscape:window-maximized="1"
     inkscape:current-layer="layer1">
    <inkscape:grid
       type="xygrid"
       id="grid2938" />
  </sodipodi:namedview>
  <defs
     id="defs3871" />
  <metadata
     id="metadata3874">
    <rdf:RDF>
      <cc:Work
         rdf:about="">
        <dc:format>image/svg+xml</dc:format>
        <dc:type
           rdf:resource="http://purl.org/dc/dcmitype/StillImage" />
      </cc:Work>
    </rdf:RDF>
  </metadata>
  <g
     id="layer1"
     transform="matrix(1 0 0 1 -326 -534.3622)">
    <path
       style="fill:#555555"
       d="M 6.9707031 2.9980469 C 6.8418231 2.9980469 6.7379069 3.0912044 6.7167969 3.2089844 L 6.5253906 4.5332031 C 6.2120906 4.6609731 5.92178 4.8253906 5.65625 5.0253906 L 4.375 4.5234375 C 4.25945 4.4812375 4.12695 4.5230994 4.0625 4.6308594 L 3.0351562 6.3632812 C 2.9706562 6.4710512 2.9990031 6.6058337 3.0957031 6.6835938 L 4.1796875 7.5117188 C 4.1585875 7.6716988 4.1445312 7.83446 4.1445312 8 C 4.1445312 8.16444 4.1596875 8.3263481 4.1796875 8.4863281 L 3.0957031 9.3144531 C 2.9979031 9.3889531 2.9707163 9.5247656 3.0351562 9.6347656 L 4.0625 11.367188 C 4.127 11.474957 4.25945 11.519039 4.375 11.474609 L 5.65625 10.972656 C 5.92067 11.170426 6.2120906 11.337074 6.5253906 11.464844 L 6.7167969 12.789062 C 6.7378969 12.906832 6.8418231 13 6.9707031 13 L 9.0273438 13 C 9.1562237 13 9.26014 12.906842 9.28125 12.789062 L 9.4726562 11.464844 C 9.7859762 11.337074 10.076257 11.172656 10.341797 10.972656 L 11.621094 11.474609 C 11.736634 11.516809 11.871117 11.474957 11.935547 11.367188 L 12.962891 9.6347656 C 13.027391 9.5269956 12.999144 9.3922231 12.902344 9.3144531 L 11.818359 8.4863281 C 11.839459 8.3263481 11.853516 8.16554 11.853516 8 C 11.853516 7.83446 11.838359 7.6716988 11.818359 7.5117188 L 12.904297 6.6835938 C 13.002097 6.6090938 13.029294 6.4732813 12.964844 6.3632812 L 11.9375 4.6308594 C 11.873 4.5230994 11.74055 4.4789975 11.625 4.5234375 L 10.34375 5.0253906 C 10.07933 4.8276206 9.7879094 4.6609731 9.4746094 4.5332031 L 9.2832031 3.2089844 C 9.2599031 3.0912144 9.1551137 2.9980469 9.0273438 2.9980469 L 6.9707031 2.9980469 z M 8 6 A 2 2 0 0 1 10 8 A 2 2 0 0 1 8 10 A 2 2 0 0 1 6 8 A 2 2 0 0 1 8 6 z "
       transform="translate(326,534.3622)"
       id="path6" />
    <path
       style="fill:#555555"
       d="M 14.134766 11.005859 C 14.038766 10.981859 13.944783 11.033411 13.908203 11.119141 L 13.525391 12.091797 C 13.269321 12.130697 13.022272 12.203801 12.789062 12.306641 L 11.927734 11.6875 C 11.848934 11.6338 11.741278 11.641237 11.673828 11.710938 L 10.597656 12.839844 C 10.530256 12.909544 10.526437 13.019143 10.585938 13.095703 L 11.244141 13.925781 C 11.199541 14.043471 11.158626 14.163373 11.128906 14.289062 C 11.099206 14.414763 11.080959 14.541129 11.068359 14.667969 L 10.111328 15.097656 C 10.024528 15.136556 9.9803725 15.234088 10.007812 15.330078 L 10.460938 16.835938 C 10.490637 16.929638 10.580088 16.989132 10.673828 16.976562 L 11.71875 16.830078 C 11.87993 17.028908 12.065051 17.210974 12.275391 17.365234 L 12.181641 18.408203 C 12.175641 18.500803 12.237934 18.591234 12.333984 18.615234 L 13.863281 18.994141 C 13.959281 19.018141 14.055217 18.965389 14.091797 18.880859 L 14.474609 17.908203 C 14.730679 17.869403 14.975774 17.796199 15.208984 17.693359 L 16.072266 18.3125 C 16.151066 18.3662 16.256769 18.356809 16.324219 18.287109 L 17.402344 17.158203 C 17.469744 17.087403 17.473463 16.980857 17.414062 16.904297 L 16.753906 16.072266 C 16.798506 15.954576 16.839421 15.832721 16.869141 15.707031 C 16.898841 15.581331 16.917087 15.454628 16.929688 15.330078 L 17.888672 14.900391 C 17.975472 14.861491 18.019628 14.765912 17.992188 14.669922 L 17.539062 13.162109 C 17.510463 13.069509 17.419912 13.010868 17.326172 13.023438 L 16.28125 13.167969 C 16.12006 12.969139 15.934959 12.790176 15.724609 12.634766 L 15.818359 11.589844 C 15.823359 11.496144 15.762096 11.407626 15.666016 11.384766 L 14.134766 11.005859 z M 14 13 A 2 2 0 0 1 16 15 A 2 2 0 0 1 14 17 A 2 2 0 0 1 12 15 A 2 2 0 0 1 14 13 z "
       transform="translate(326,534.3622)"
       id="path8" />
    <path
       style="color:#000000;color-interpolation:sRGB;color-interpolation-filters:linearRGB;fill:#555555;color-rendering:auto;image-rendering:auto;shape-rendering:auto;text-rendering:auto"
       d="m 327,548.3622 v 3 h 3 v -3 z m 4,0 v 3 h 3 v -3 z m -4,4 v 3 h 3 v -3 z m 4,0 v 3 h 3 v -3 z"
       id="path4"
       sodipodi:nodetypes="cccccccccccccccccccc" />
  </g>
</svg>

<?xml version="1.0" encoding="UTF-8"?><svg id="svg2" width="22" height="22" version="1.1" xmlns="http://www.w3.org/2000/svg" xmlns:cc="http://creativecommons.org/ns#" xmlns:dc="http://purl.org/dc/elements/1.1/" xmlns:rdf="http://www.w3.org/1999/02/22-rdf-syntax-ns#">
 <metadata id="metadata3874">
  <rdf:RDF>
   <cc:Work rdf:about="">
    <dc:format>image/svg+xml</dc:format>
    <dc:type rdf:resource="http://purl.org/dc/dcmitype/StillImage"/>
   </cc:Work>
  </rdf:RDF>
 </metadata>
 <g id="layer1" transform="translate(-326 -534.36)" fill="#555">
  <path id="path6" transform="translate(326 534.36)" d="m6.9707 2.998c-0.12888 0-0.2328 0.093158-0.25391 0.21094l-0.19141 1.3242c-0.3133 0.12777-0.60361 0.29219-0.86914 0.49219l-1.2812-0.50195c-0.11555-0.0422-0.24805-3.381e-4 -0.3125 0.10742l-1.0273 1.7324c-0.0645 0.10777-0.036153 0.24255 0.060547 0.32031l1.084 0.82812c-0.0211 0.15998-0.035156 0.32274-0.035156 0.48828 0 0.16444 0.015156 0.32635 0.035156 0.48633l-1.084 0.82812c-0.0978 0.0745-0.12499 0.21031-0.060547 0.32031l1.0273 1.7324c0.0645 0.10777 0.19695 0.15185 0.3125 0.10742l1.2812-0.50195c0.26442 0.19777 0.55584 0.36442 0.86914 0.49219l0.19141 1.3242c0.0211 0.11777 0.12503 0.21094 0.25391 0.21094h2.0566c0.12888 0 0.2328-0.093158 0.25391-0.21094l0.19141-1.3242c0.31332-0.12777 0.6036-0.29219 0.86914-0.49219l1.2793 0.50195c0.11554 0.0422 0.25002 3.48e-4 0.31445-0.10742l1.0273-1.7324c0.0645-0.10777 0.036253-0.24254-0.060547-0.32031l-1.084-0.82812c0.0211-0.15998 0.035157-0.32079 0.035157-0.48633s-0.015157-0.3283-0.035157-0.48828l1.0859-0.82812c0.0978-0.0745 0.125-0.21031 0.060547-0.32031l-1.0273-1.7324c-0.0645-0.10776-0.19695-0.15186-0.3125-0.10742l-1.2812 0.50195c-0.26442-0.19777-0.55584-0.36442-0.86914-0.49219l-0.19141-1.3242c-0.0233-0.11777-0.12809-0.21094-0.25586-0.21094h-2.0566zm1.0293 3.002a2 2 0 0 1 2 2 2 2 0 0 1-2 2 2 2 0 0 1-2-2 2 2 0 0 1 2-2z"/>
  <path id="path8" transform="translate(326 534.36)" d="m14.135 11.006c-0.096-0.024-0.18998 0.027552-0.22656 0.11328l-0.38281 0.97266c-0.25607 0.0389-0.50312 0.112-0.73633 0.21484l-0.86133-0.61914c-0.0788-0.0537-0.18646-0.046263-0.25391 0.023438l-1.0762 1.1289c-0.0674 0.0697-0.071219 0.1793-0.011718 0.25586l0.6582 0.83008c-0.0446 0.11769-0.085515 0.23759-0.11524 0.36328-0.0297 0.1257-0.047947 0.25207-0.060547 0.37891l-0.95703 0.42969c-0.0868 0.0389-0.13096 0.13643-0.10352 0.23242l0.45313 1.5059c0.029699 0.0937 0.11915 0.15319 0.21289 0.14062l1.0449-0.14648c0.16118 0.19883 0.3463 0.3809 0.55664 0.53516l-0.09375 1.043c-6e-3 0.0926 0.056293 0.18303 0.15234 0.20703l1.5293 0.37891c0.096 0.024 0.19194-0.028752 0.22852-0.11328l0.38281-0.97266c0.25607-0.0388 0.50116-0.112 0.73438-0.21484l0.86328 0.61914c0.0788 0.0537 0.1845 0.044309 0.25195-0.025391l1.0781-1.1289c0.0674-0.0708 0.071119-0.17735 0.011718-0.25391l-0.66016-0.83203c0.0446-0.11769 0.085515-0.23954 0.11524-0.36524 0.0297-0.1257 0.047946-0.2524 0.060547-0.37695l0.95898-0.42969c0.0868-0.0389 0.13096-0.13448 0.10352-0.23047l-0.45313-1.5078c-0.028599-0.0926-0.11915-0.15124-0.21289-0.13867l-1.0449 0.14453c-0.16119-0.19883-0.34629-0.37779-0.55664-0.5332l0.09375-1.0449c5e-3 -0.0937-0.056263-0.18222-0.15234-0.20508l-1.5312-0.37891zm-0.13477 1.9941a2 2 0 0 1 2 2 2 2 0 0 1-2 2 2 2 0 0 1-2-2 2 2 0 0 1 2-2z"/>
  <path id="path4" d="m327 548.36v3h3v-3zm4 0v3h3v-3zm-4 4v3h3v-3zm4 0v3h3v-3z" color="#000000" color-rendering="auto" image-rendering="auto" shape-rendering="auto"/>
 </g>
</svg>
